X:1
T:Bishop MacDonald in D
M:4/4
L:1/8
Q:120
R:reel
Z: Contributed 2016-04-26 01:31:31 by jim Gaskins fiddeji@comcast.net
K:D
FG| A2 AF A2 Bc| d>e (3dcB (3AFB BA | B2 de f2 ed | BA FE FA AF |
M:2/4
L:1/8
Q:120
A2 Bc|\
M:4/4
L:1/8
Q:120
| d>e (3dcB (3AFB BA | B2 (3Bcd F2 G<E2|\
M:2/4
L:1/8
Q:120
D2-DG|
M:4/4
L:1/8
Q:120
A2 AF A2 Bc | de dB B2 BA | B2 de f2 ed | BA FE FA AF |
M:2/4
L:1/8
Q:120
A2 Bc|\
M:4/4
L:1/8
Q:120
| d>e (3dcB (3AFB BA  | B2 Bd F2 E2 |\
M:2/4
L:1/8
Q:120
D2-Dg |
M:4/4
L:1/8
Q:120
fa ab a2 fd | fb ba b2 (3abc' | d'2 fa b2 de | f2 ed BA FE |
fa ab a2 fd | fb ba b2 (3abc' | d'2 fa b2 de | f2 e2 d4||
%flute player PG Mulvaney from harper Elaine Fortin
%from Rankin Family from K Burke? from Ed Pearlman
% from CB fdlr Paul MacDonald, whence?
